resources/icons/16px/team.svg

<svg width="16" height="16" viewBox="0 0 16 16" fill="none" xmlns="http://www.w3.org/2000/svg">
<path d="M11.3276 10.2376C12.3428 10.6506 13.4875 11.1164 13.7669 11.7541C14.0695 12.4447 14.015 14.4237 14.0019 14.8973C14.0001 14.9624 13.9999 15 13.9999 15H1.99999C1.99999 15 1.88659 12.5346 2.23182 11.7466C2.51124 11.1089 3.65596 10.6431 4.67115 10.2301C4.91025 10.1329 5.14215 10.0385 5.35388 9.94552C6.33912 9.50989 6.35471 9.22389 6.3735 8.87906C6.37575 8.83777 6.37805 8.79563 6.38206 8.75229C6.38206 8.72602 6.38394 8.69975 6.38581 8.67349C6.38769 8.64722 6.38957 8.62096 6.38957 8.59469C5.99931 8.25698 5.6766 7.78419 5.47396 7.24386L5.46646 7.23635C5.46646 7.2326 5.46458 7.22885 5.4627 7.22509C5.46083 7.22134 5.45895 7.21759 5.45895 7.21384C5.41392 7.09376 5.3764 6.97369 5.34638 6.84611C5.0837 6.80108 4.9336 6.52341 4.87357 6.26075C4.82103 6.15568 4.70095 5.90053 4.72347 5.61535C4.76099 5.23261 4.91859 5.06001 5.09871 4.99247V4.93243C5.09871 4.45213 5.13624 3.76921 5.2263 3.31893C5.24131 3.19135 5.27133 3.07128 5.30885 2.9437C5.47396 2.39586 5.81168 1.90056 6.26949 1.54784C6.7423 1.18762 7.41024 1 8.00313 1C8.59602 1 9.26396 1.19512 9.74428 1.54784C10.2021 1.89305 10.5398 2.39586 10.7049 2.9437C10.7424 3.07128 10.7725 3.19135 10.7875 3.31893C10.87 3.76921 10.9151 4.45964 10.9151 4.93243V4.99997C11.0802 5.06751 11.2303 5.24012 11.2678 5.61535C11.2903 5.90803 11.1777 6.16319 11.1177 6.26825C11.0651 6.52341 10.9151 6.80108 10.6599 6.85361C10.6299 6.97369 10.5923 7.10127 10.5473 7.21384C10.5398 7.22134 10.5323 7.25136 10.5323 7.25136C10.3297 7.78419 10.022 8.24948 9.63921 8.58719C9.63921 8.64721 9.63921 8.70727 9.64671 8.75979C9.65152 8.81163 9.65324 8.86175 9.65494 8.91077C9.66647 9.24491 9.67623 9.52763 10.6449 9.95303C10.8566 10.046 11.0885 10.1404 11.3276 10.2376Z" fill="black"/>
<path d="M4.49947 7.5212C4.38303 7.42312 4.2897 7.31507 4.21765 7.21278C4.0818 7.01992 3.99375 6.81186 3.93942 6.61979C3.63511 5.96836 3.64812 5.13424 4.09245 4.5462C4.11539 3.91825 4.15734 3.26782 4.33567 2.66152C4.38425 2.50036 4.44349 2.34243 4.51278 2.18906C4.18613 2.06406 3.8288 2 3.4971 2C2.95362 2 2.34134 2.17886 1.90105 2.50219C1.4814 2.81863 1.17182 3.27954 1.02047 3.78173C0.986068 3.89867 0.958551 4.00874 0.944792 4.12569C0.869117 4.53844 0.827839 5.17133 0.827839 5.60473V5.66664C0.67649 5.72855 0.538899 5.88678 0.504501 6.23074C0.483862 6.49903 0.587056 6.73292 0.642092 6.82923C0.690249 7.06313 0.827839 7.31766 1.06174 7.36581C1.08926 7.47588 1.12366 7.59283 1.16494 7.69602C1.17182 7.7029 1.1787 7.73041 1.1787 7.73041C1.36444 8.21884 1.6465 8.64535 1.99736 8.95492C1.99736 9.00995 1.99736 9.06499 1.99048 9.11314C1.98608 9.16066 1.9845 9.20661 1.98294 9.25154C1.97237 9.55784 1.96343 9.81699 1.0755 10.2069C0.281154 10.5558 0 11.046 0 12C0 12.5 0 15 0 15H1C1 15 0.840898 12.6443 1 12C1.1591 11.3557 1.57175 10.8155 2.10776 10.4108C2.71746 9.95048 3.44118 9.65715 4.14718 9.37099C4.21839 9.34213 4.29014 9.31305 4.36085 9.28417C5.21835 8.93395 5.06073 8.63959 4.78239 8.11977C4.69051 7.94818 4.58548 7.75203 4.49947 7.5212Z" fill="black"/>
<path d="M11.5005 7.5212C11.6169 7.42312 11.7102 7.31507 11.7823 7.21278C11.9181 7.01992 12.0062 6.81186 12.0605 6.61979C12.3648 5.96836 12.3518 5.13424 11.9075 4.5462C11.8845 3.91825 11.8426 3.26782 11.6643 2.66152C11.6157 2.50036 11.5564 2.34243 11.4871 2.18906C11.8138 2.06406 12.1711 2 12.5028 2C13.0463 2 13.6586 2.17886 14.0989 2.50219C14.5185 2.81863 14.8281 3.27954 14.9795 3.78173C15.0139 3.89867 15.0414 4.00874 15.0551 4.12569C15.1308 4.53844 15.1721 5.17133 15.1721 5.60473V5.66664C15.3234 5.72855 15.461 5.88678 15.4954 6.23074C15.5161 6.49903 15.4129 6.73292 15.3578 6.82923C15.3097 7.06313 15.1721 7.31766 14.9382 7.36581C14.9107 7.47588 14.8763 7.59283 14.835 7.69602C14.8281 7.7029 14.8212 7.73041 14.8212 7.73041C14.6355 8.21884 14.3534 8.64535 14.0026 8.95492C14.0026 9.00995 14.0026 9.06499 14.0094 9.11314C14.0138 9.16065 14.0154 9.20659 14.017 9.2515C14.0276 9.5578 14.0365 9.81699 14.9244 10.2069C15.7188 10.5558 16 11.046 16 12V15H15C15 15 15.1591 12.6443 15 12C14.8409 11.3557 14.4282 10.8155 13.8922 10.4108C13.2825 9.95048 12.5587 9.65715 11.8527 9.37099C11.7813 9.34203 11.71 9.31315 11.6391 9.28417C10.7816 8.93395 10.9392 8.63959 11.2175 8.11977C11.3094 7.94819 11.4144 7.75202 11.5005 7.5212Z" fill="black"/>
</svg>

<svg xmlns="http://www.w3.org/2000/svg" viewBox="0 0 16 16">
  <path d="M11.328 10.238c1.015.413 2.16.878 2.439 1.516.303.69.248 2.67.235 3.143L14 15H2s-.113-2.465.232-3.253c.28-.638 1.424-1.104 2.44-1.517.238-.097.47-.191.682-.284.985-.436 1-.722 1.02-1.067q.003-.061.008-.127 0-.039.004-.079.003-.039.004-.078a3.35 3.35 0 0 1-.916-1.351l-.008-.008q0-.005-.003-.01-.003-.007-.004-.012a3 3 0 0 1-.113-.368c-.262-.045-.412-.323-.472-.585-.053-.105-.173-.36-.15-.646.037-.382.195-.555.375-.623v-.06c0-.48.037-1.163.127-1.613.015-.128.045-.248.083-.375a2.8 2.8 0 0 1 .96-1.396C6.742 1.188 7.41 1 8.003 1s1.261.195 1.741.548a2.76 2.76 0 0 1 1.043 1.77c.083.451.128 1.142.128 1.614V5c.165.068.315.24.353.615.022.293-.09.548-.15.653-.053.255-.203.533-.458.586a3 3 0 0 1-.113.36c-.007.007-.015.037-.015.037-.202.533-.51.998-.893 1.336 0 .06 0 .12.008.173q.006.078.008.15c.011.335.021.618.99 1.043.212.093.444.187.683.285"/>
  <path d="M4.5 7.521a1.6 1.6 0 0 1-.282-.308 2 2 0 0 1-.279-.593c-.304-.652-.29-1.486.153-2.074.023-.628.065-1.278.244-1.884a4 4 0 0 1 .177-.473A2.9 2.9 0 0 0 3.497 2c-.543 0-1.156.179-1.596.502a2.53 2.53 0 0 0-.956 1.624 9.5 9.5 0 0 0-.117 1.479v.062c-.152.062-.29.22-.323.564-.021.268.082.502.137.598.048.234.186.489.42.537.027.11.062.227.103.33a3.098 3.098 0 0 0 .832 1.259q.002.084-.007.158-.006.072-.007.139c-.01.306-.02.565-.908.955C.281 10.556 0 11.046 0 12v3h1s-.16-2.356 0-3 .572-1.184 1.108-1.59c.61-.46 1.333-.753 2.04-1.039l.213-.087c.857-.35.7-.644.421-1.164A5 5 0 0 1 4.5 7.52M11.5 7.521a1.6 1.6 0 0 0 .282-.308c.136-.193.224-.401.278-.593.305-.652.292-1.486-.152-2.074-.024-.628-.065-1.278-.244-1.884a4 4 0 0 0-.177-.473c.327-.125.684-.189 1.016-.189.543 0 1.156.179 1.596.502a2.53 2.53 0 0 1 .956 1.624c.076.412.117 1.045.117 1.479v.062c.151.062.289.22.323.564.021.268-.082.502-.137.598-.048.234-.186.489-.42.537-.027.11-.062.227-.103.33a3.098 3.098 0 0 1-.832 1.259q-.002.084.006.158.006.072.008.139c.01.306.02.565.907.955C15.72 10.556 16 11.046 16 12v3h-1s.16-2.356 0-3-.572-1.184-1.108-1.59c-.61-.46-1.333-.753-2.04-1.039l-.213-.087c-.857-.35-.7-.644-.421-1.164a5 5 0 0 0 .283-.599"/>
</svg>
